style/elvis/src/icons/svg/src/phone-mobile.svg

<svg width="24" height="25" viewBox="0 0 24 25" fill="none" xmlns="http://www.w3.org/2000/svg">
<path d="M8.25101 24.0293C6.18301 24.0293 4.50101 22.3454 4.50101 20.275V3.75602C4.50101 1.68564 6.18301 0.00170898 8.25101 0.00170898H15.751C17.819 0.00170898 19.501 1.68564 19.501 3.75602V20.275C19.501 22.3454 17.819 24.0293 15.751 24.0293H8.25101ZM6.00101 20.275C6.00101 21.5174 7.01001 22.5276 8.25101 22.5276H15.751C16.992 22.5276 18.001 21.5174 18.001 20.275V19.5241H6.00101V20.275V20.275ZM18.001 18.0224V3.75602C18.001 2.51359 16.992 1.50343 15.751 1.50343H8.25101C7.01001 1.50343 6.00101 2.51359 6.00101 3.75602V18.0224H18.001Z" fill="black"/>
</svg>

<svg width="24" height="25" fill="none" xmlns="http://www.w3.org/2000/svg"><path d="M8.251 24.03a3.756 3.756 0 01-3.75-3.755V3.756A3.756 3.756 0 018.251.002h7.5a3.756 3.756 0 013.75 3.754v16.519a3.756 3.756 0 01-3.75 3.754h-7.5zm-2.25-3.755a2.253 2.253 0 002.25 2.253h7.5c1.241 0 2.25-1.01 2.25-2.253v-.75h-12v.75zm12-2.253V3.756a2.253 2.253 0 00-2.25-2.253h-7.5a2.253 2.253 0 00-2.25 2.253v14.266h12z" fill="#1B314B"/></svg>
